public/logos/Y7.svg

<?xml version="1.0" encoding="UTF-8"?>
<svg xmlns="http://www.w3.org/2000/svg" xmlns:xlink="http://www.w3.org/1999/xlink" width="176pt" height="43.21pt" viewBox="0 0 176 43.21" version="1.1">
<defs>
<clipPath id="clip1">
  <path d="M 18 19 L 26 19 L 26 43.210938 L 18 43.210938 Z M 18 19 "/>
</clipPath>
</defs>
<g id="surface1">
<path style=" stroke:none;fill-rule:nonzero;fill:rgb(23.228455%,22.093201%,60.23407%);fill-opacity:1;" d="M 24.820312 16.097656 C 33.132812 17.390625 34.5 1.441406 45.175781 3.640625 C 39.96875 5.773438 39.515625 9.882812 36.550781 13.292969 C 33.71875 16.546875 29.417969 18.867188 24.820312 16.097656 "/>
<path style=" stroke:none;fill-rule:nonzero;fill:rgb(21.025085%,29.577637%,65.196228%);fill-opacity:1;" d="M 24.0625 15.195312 C 30.695312 13.902344 27.371094 1.484375 36.039062 0.226562 C 32.683594 3.261719 33.46875 6.488281 32.15625 9.875 C 30.90625 13.105469 28.292969 16.03125 24.0625 15.195312 "/>
<path style=" stroke:none;fill-rule:nonzero;fill:rgb(30.877686%,42.242432%,74.159241%);fill-opacity:1;" d="M 22.835938 14.972656 C 27.582031 12.074219 21.457031 3.449219 27.78125 -0.00390625 C 26.066406 3.296875 27.59375 5.5625 27.554688 8.546875 C 27.515625 11.394531 26.339844 14.402344 22.835938 14.972656 "/>
<path style=" stroke:none;fill-rule:nonzero;fill:rgb(49.838257%,56.091309%,81.686401%);fill-opacity:1;" d="M 21.664062 15.339844 C 24.402344 11.832031 17.386719 7.089844 21.15625 2.722656 C 20.796875 5.679688 22.582031 6.949219 23.390625 9.199219 C 24.164062 11.34375 24.128906 13.929688 21.664062 15.339844 "/>
<path style=" stroke:none;fill-rule:nonzero;fill:rgb(23.228455%,22.093201%,60.23407%);fill-opacity:1;" d="M 21.023438 15.871094 C 17.949219 8.042969 3.488281 14.902344 0 4.574219 C 4.46875 7.996094 8.246094 6.3125 12.683594 7.15625 C 16.921875 7.960938 21.097656 10.503906 21.023438 15.871094 "/>
<path style=" stroke:none;fill-rule:nonzero;fill:rgb(21.025085%,29.577637%,65.196228%);fill-opacity:1;" d="M 20.628906 16.980469 C 16.164062 11.90625 7.117188 21.039062 1.664062 14.1875 C 5.972656 15.554688 8.367188 13.25 11.949219 12.675781 C 15.367188 12.125 19.214844 12.90625 20.628906 16.980469 "/>
<path style=" stroke:none;fill-rule:nonzero;fill:rgb(30.877686%,42.242432%,74.159241%);fill-opacity:1;" d="M 21.050781 18.152344 C 16.15625 15.515625 11.796875 25.152344 5.625 21.433594 C 9.339844 21.253906 10.527344 18.789062 13.125 17.320312 C 15.605469 15.914062 18.792969 15.414062 21.050781 18.152344 "/>
<path style=" stroke:none;fill-rule:nonzero;fill:rgb(49.838257%,56.091309%,81.686401%);fill-opacity:1;" d="M 21.960938 18.976562 C 17.550781 18.382812 16.992188 26.832031 11.324219 25.78125 C 14.054688 24.597656 14.253906 22.417969 15.785156 20.585938 C 17.25 18.835938 19.5 17.5625 21.960938 18.976562 "/>
<g clip-path="url(#clip1)" clip-rule="nonzero">
<path style=" stroke:none;fill-rule:nonzero;fill:rgb(23.228455%,22.093201%,60.23407%);fill-opacity:1;" d="M 22.765625 19.355469 C 17.558594 25.964844 30.777344 34.988281 23.617188 43.210938 C 24.320312 37.625 20.960938 35.210938 19.449219 30.953125 C 18.007812 26.890625 18.09375 22.003906 22.765625 19.355469 "/>
</g>
<path style=" stroke:none;fill-rule:nonzero;fill:rgb(21.025085%,29.577637%,65.196228%);fill-opacity:1;" d="M 23.921875 19.140625 C 21.792969 25.550781 34.242188 28.757812 31.082031 36.925781 C 30.085938 32.515625 26.890625 31.609375 24.585938 28.804688 C 22.386719 26.128906 21.117188 22.414062 23.921875 19.140625 "/>
<path style=" stroke:none;fill-rule:nonzero;fill:rgb(30.877686%,42.242432%,74.159241%);fill-opacity:1;" d="M 24.722656 18.183594 C 24.917969 23.738281 35.4375 22.644531 35.335938 29.84375 C 33.304688 26.730469 30.582031 26.949219 28 25.449219 C 25.539062 24.015625 23.496094 21.511719 24.722656 18.183594 "/>
<path style=" stroke:none;fill-rule:nonzero;fill:rgb(49.838257%,56.091309%,81.686401%);fill-opacity:1;" d="M 24.976562 16.980469 C 26.6875 21.089844 34.265625 17.308594 36.21875 22.734375 C 33.816406 20.972656 31.835938 21.902344 29.480469 21.503906 C 27.230469 21.121094 24.996094 19.820312 24.976562 16.980469 "/>
<path style=" stroke:none;fill-rule:evenodd;fill:rgb(23.228455%,22.093201%,60.23407%);fill-opacity:1;" d="M 176 16.5 C 174.519531 16.566406 173.296875 17.171875 172.269531 18.226562 C 172.0625 18.445312 171.964844 18.675781 171.96875 18.980469 C 171.996094 21.855469 172.019531 24.726562 172.039062 27.601562 C 172.042969 27.992188 172.039062 28.378906 172.039062 28.859375 C 170.761719 28.886719 169.535156 28.867188 168.257812 28.859375 C 168.234375 28.570312 168.203125 28.324219 168.203125 28.078125 C 168.199219 24.300781 168.191406 20.523438 168.210938 16.746094 C 168.210938 16.300781 168.277344 15.84375 168.410156 15.421875 C 168.8125 14.140625 170.148438 13.355469 171.59375 13.566406 C 171.59375 14.125 171.59375 14.703125 171.59375 15.445312 C 172.964844 14.292969 174.296875 13.429688 176 13.449219 C 176 14.464844 176 15.480469 176 16.5 "/>
<path style=" stroke:none;fill-rule:evenodd;fill:rgb(23.228455%,22.093201%,60.23407%);fill-opacity:1;" d="M 71.667969 28.824219 C 70.417969 28.824219 69.15625 28.824219 67.777344 28.824219 C 63.917969 23.816406 60.082031 18.679688 56.160156 13.609375 C 56.105469 13.628906 56.046875 13.648438 55.992188 13.671875 C 55.992188 18.714844 55.992188 23.753906 55.992188 28.828125 C 54.742188 28.828125 53.570312 28.828125 52.332031 28.828125 C 52.332031 28.5625 52.332031 28.34375 52.332031 28.125 C 52.332031 22.476562 52.328125 16.828125 52.328125 11.179688 C 52.328125 10.871094 52.324219 10.554688 52.394531 10.253906 C 52.742188 8.800781 53.773438 7.960938 55.292969 7.875 C 55.574219 7.859375 55.851562 7.875 56.195312 7.875 C 60.054688 12.835938 63.929688 17.8125 67.882812 22.894531 C 67.941406 22.667969 67.996094 22.554688 68 22.441406 C 68.019531 18.773438 68.027344 15.105469 68.050781 11.4375 C 68.054688 10.964844 68.121094 10.484375 68.21875 10.019531 C 68.414062 9.085938 69.023438 8.476562 69.886719 8.148438 C 70.433594 7.945312 71.015625 7.792969 71.667969 7.914062 C 71.667969 14.867188 71.667969 21.816406 71.667969 28.824219 "/>
<path style=" stroke:none;fill-rule:evenodd;fill:rgb(23.228455%,22.093201%,60.23407%);fill-opacity:1;" d="M 136.953125 8.742188 C 136.953125 9.875 136.953125 10.964844 136.953125 12.089844 C 136.773438 12.054688 136.632812 12.042969 136.503906 11.996094 C 134.023438 11.09375 131.449219 10.898438 128.84375 11.058594 C 127.972656 11.109375 127.109375 11.300781 126.34375 11.746094 C 124.949219 12.550781 124.722656 13.652344 125.054688 15.078125 C 125.269531 15.996094 126.023438 16.496094 127.105469 16.527344 C 128.515625 16.566406 129.929688 16.507812 131.339844 16.554688 C 132.605469 16.597656 133.855469 16.738281 135.039062 17.265625 C 136.421875 17.878906 137.328125 18.890625 137.738281 20.324219 C 138.164062 21.824219 138.132812 23.335938 137.664062 24.820312 C 137.242188 26.171875 136.359375 27.160156 135.132812 27.851562 C 134.210938 28.371094 133.214844 28.671875 132.179688 28.828125 C 130.222656 29.121094 128.257812 29.074219 126.285156 28.878906 C 124.902344 28.742188 123.574219 28.4375 122.269531 28.085938 C 122.105469 27.414062 122.089844 25.542969 122.230469 24.65625 C 122.414062 24.707031 122.597656 24.757812 122.773438 24.8125 C 124.480469 25.3125 126.210938 25.648438 127.996094 25.695312 C 129.210938 25.726562 130.414062 25.777344 131.605469 25.496094 C 132.308594 25.335938 132.929688 25.035156 133.433594 24.496094 C 134.199219 23.675781 134.339844 22.691406 134.085938 21.660156 C 133.84375 20.671875 132.851562 20.054688 131.585938 20.03125 C 130.257812 20.011719 128.929688 20.011719 127.605469 20.027344 C 126.464844 20.042969 125.351562 19.910156 124.289062 19.503906 C 122.605469 18.859375 121.601562 17.632812 121.269531 15.84375 C 121.0625 14.75 121.0625 13.667969 121.265625 12.570312 C 121.535156 11.09375 122.347656 9.996094 123.570312 9.1875 C 124.648438 8.476562 125.859375 8.089844 127.121094 7.917969 C 130.164062 7.496094 133.1875 7.628906 136.164062 8.464844 C 136.429688 8.539062 136.6875 8.648438 136.953125 8.742188 "/>
<path style=" stroke:none;fill-rule:evenodd;fill:rgb(23.228455%,22.093201%,60.23407%);fill-opacity:1;" d="M 113.8125 17.476562 C 112.640625 16.816406 111.621094 16.636719 109.855469 16.632812 C 107.90625 16.625 106.703125 18 106.492188 19.742188 C 106.40625 20.476562 106.421875 21.195312 106.488281 21.925781 C 106.5625 22.695312 106.769531 23.40625 107.140625 24.089844 C 107.65625 25.046875 108.484375 25.546875 109.507812 25.636719 C 110.339844 25.707031 111.191406 25.605469 112.027344 25.539062 C 112.644531 25.492188 113.246094 25.367188 113.8125 25.046875 C 113.8125 22.523438 113.8125 20.019531 113.8125 17.476562 Z M 113.839844 14.148438 C 113.839844 13.589844 113.839844 13.089844 113.839844 12.589844 C 113.839844 12.054688 113.835938 11.519531 113.84375 10.984375 C 113.859375 9.25 114.9375 8.070312 116.671875 7.894531 C 116.972656 7.863281 117.277344 7.886719 117.621094 7.886719 C 117.621094 14.589844 117.621094 21.238281 117.621094 27.980469 C 116.898438 28.148438 116.148438 28.363281 115.386719 28.496094 C 113.378906 28.835938 111.355469 28.949219 109.324219 28.839844 C 107.464844 28.746094 105.789062 28.175781 104.488281 26.765625 C 103.644531 25.847656 103.1875 24.75 102.929688 23.539062 C 102.492188 21.488281 102.503906 19.449219 103.183594 17.457031 C 103.785156 15.699219 105.011719 14.527344 106.800781 13.960938 C 109.019531 13.257812 111.226562 13.28125 113.425781 14.042969 C 113.523438 14.074219 113.632812 14.09375 113.839844 14.148438 "/>
<path style=" stroke:none;fill-rule:evenodd;fill:rgb(23.228455%,22.093201%,60.23407%);fill-opacity:1;" d="M 160.554688 22.582031 C 160.230469 22.515625 159.960938 22.449219 159.691406 22.40625 C 159.359375 22.355469 159.023438 22.304688 158.6875 22.289062 C 157.625 22.234375 156.558594 22.128906 155.507812 22.398438 C 154.921875 22.550781 154.386719 22.777344 154.144531 23.402344 C 153.730469 24.449219 154.21875 25.6875 155.652344 25.828125 C 156.773438 25.933594 157.90625 25.921875 158.976562 25.484375 C 159.539062 25.253906 160.140625 25.074219 160.554688 24.554688 C 160.554688 23.933594 160.554688 23.320312 160.554688 22.582031 Z M 160.488281 19.535156 C 160.765625 17.886719 160.113281 16.941406 158.484375 16.648438 C 157.144531 16.40625 155.804688 16.378906 154.460938 16.613281 C 153.492188 16.777344 152.519531 16.921875 151.507812 17.085938 C 151.507812 16.171875 151.507812 15.226562 151.507812 14.226562 C 152.21875 13.898438 153.027344 13.804688 153.816406 13.65625 C 155.15625 13.410156 156.515625 13.414062 157.863281 13.5 C 159.382812 13.597656 160.878906 13.851562 162.234375 14.628906 C 163.214844 15.191406 163.863281 16.003906 164.171875 17.082031 C 164.261719 17.402344 164.316406 17.746094 164.316406 18.078125 C 164.328125 21.578125 164.328125 25.074219 164.328125 28.574219 C 164.328125 28.628906 164.308594 28.683594 164.289062 28.769531 C 162.953125 29.160156 161.832031 28.714844 160.902344 27.882812 C 159.917969 28.1875 159.027344 28.566406 158.101562 28.71875 C 156.335938 29.011719 154.558594 29.007812 152.859375 28.328125 C 151.246094 27.683594 150.316406 26.503906 150.253906 24.734375 C 150.230469 24.117188 150.203125 23.480469 150.320312 22.878906 C 150.59375 21.5 151.507812 20.601562 152.765625 20.070312 C 153.777344 19.644531 154.855469 19.394531 155.964844 19.414062 C 157.449219 19.4375 158.9375 19.492188 160.488281 19.535156 "/>
<path style=" stroke:none;fill-rule:evenodd;fill:rgb(23.228455%,22.093201%,60.23407%);fill-opacity:1;" d="M 78.664062 21.089844 C 78.742188 21.75 78.761719 22.375 78.898438 22.972656 C 79.164062 24.136719 79.671875 25.144531 80.839844 25.683594 C 81.5 25.984375 82.191406 26.066406 82.898438 26.027344 C 84.972656 25.917969 85.882812 24.980469 86.375 23.375 C 86.78125 22.058594 86.78125 20.703125 86.5 19.367188 C 86.371094 18.742188 86.160156 18.121094 85.722656 17.605469 C 84.699219 16.394531 83.363281 16.164062 81.890625 16.375 C 80.242188 16.613281 79.292969 17.632812 78.921875 19.203125 C 78.773438 19.828125 78.742188 20.480469 78.664062 21.089844 Z M 90.527344 21.21875 C 90.457031 22.246094 90.371094 23.242188 90.105469 24.238281 C 89.421875 26.808594 87.710938 28.269531 85.191406 28.796875 C 83.445312 29.160156 81.675781 29.144531 79.910156 28.71875 C 77.53125 28.136719 75.996094 26.695312 75.320312 24.355469 C 74.683594 22.164062 74.695312 19.960938 75.375 17.777344 C 76.183594 15.171875 78.074219 13.851562 80.6875 13.484375 C 81.601562 13.355469 82.539062 13.300781 83.464844 13.328125 C 84.617188 13.363281 85.746094 13.601562 86.816406 14.085938 C 88.753906 14.964844 89.792969 16.53125 90.210938 18.542969 C 90.394531 19.417969 90.425781 20.328125 90.527344 21.21875 "/>
<path style=" stroke:none;fill-rule:evenodd;fill:rgb(23.228455%,22.093201%,60.23407%);fill-opacity:1;" d="M 144.257812 10.773438 C 144.257812 11.664062 144.257812 12.5 144.257812 13.429688 C 145.457031 13.523438 146.605469 13.433594 147.796875 13.492188 C 147.796875 14.464844 147.796875 15.410156 147.796875 16.441406 C 146.785156 16.457031 145.761719 16.472656 144.691406 16.492188 C 144.675781 16.789062 144.648438 17.007812 144.648438 17.226562 C 144.644531 19.34375 144.636719 21.457031 144.65625 23.574219 C 144.660156 23.988281 144.757812 24.414062 144.890625 24.808594 C 145.117188 25.496094 145.644531 25.835938 146.367188 25.851562 C 146.820312 25.863281 147.269531 25.855469 147.757812 25.855469 C 147.9375 26.355469 147.820312 26.863281 147.84375 27.359375 C 147.859375 27.832031 147.847656 28.308594 147.847656 28.820312 C 146.375 28.820312 144.957031 28.957031 143.578125 28.785156 C 142.085938 28.597656 141.226562 27.582031 140.964844 25.980469 C 140.886719 25.511719 140.898438 25.023438 140.898438 24.542969 C 140.894531 21.128906 140.894531 17.714844 140.902344 14.296875 C 140.902344 13.933594 140.894531 13.558594 140.96875 13.203125 C 141.207031 12.054688 141.902344 11.296875 143.03125 10.96875 C 143.402344 10.863281 143.796875 10.84375 144.257812 10.773438 "/>
<path style=" stroke:none;fill-rule:evenodd;fill:rgb(23.228455%,22.093201%,60.23407%);fill-opacity:1;" d="M 96.726562 13.527344 C 96.726562 14.136719 96.726562 14.695312 96.726562 15.390625 C 96.996094 15.207031 97.175781 15.105469 97.332031 14.96875 C 98.132812 14.269531 99.050781 13.804688 100.085938 13.566406 C 100.378906 13.5 100.6875 13.5 101.035156 13.460938 C 101.035156 14.480469 101.035156 15.425781 101.035156 16.457031 C 99.515625 16.636719 98.207031 17.269531 97.152344 18.566406 C 97.152344 21.917969 97.152344 25.351562 97.152344 28.828125 C 95.859375 28.828125 94.636719 28.828125 93.339844 28.828125 C 93.339844 28.566406 93.339844 28.347656 93.339844 28.125 C 93.339844 24.371094 93.335938 20.617188 93.34375 16.863281 C 93.34375 16.5 93.390625 16.132812 93.46875 15.777344 C 93.816406 14.222656 94.996094 13.382812 96.726562 13.527344 "/>
</g>
</svg>

<svg xmlns="http://www.w3.org/2000/svg" width="176pt" height="57.613" viewBox="0 0 176 43.21"><defs><clipPath id="a"><path d="M18 19h8v24.21h-8Zm0 0"/></clipPath></defs><path d="M24.82 16.098C33.133 17.39 34.5 1.44 45.176 3.64c-5.207 2.132-5.66 6.242-8.625 9.652-2.832 3.254-7.133 5.574-11.73 2.805" style="stroke:none;fill-rule:nonzero;fill:#3b389a;fill-opacity:1"/><path d="M24.063 15.195C30.694 13.902 27.37 1.485 36.039.227c-3.355 3.035-2.57 6.261-3.883 9.648-1.25 3.23-3.863 6.156-8.093 5.32" style="stroke:none;fill-rule:nonzero;fill:#364ba6;fill-opacity:1"/><path d="M22.836 14.973c4.746-2.899-1.379-11.524 4.945-14.977-1.715 3.3-.187 5.567-.226 8.55-.04 2.849-1.215 5.856-4.72 6.427" style="stroke:none;fill-rule:nonzero;fill:#4f6cbd;fill-opacity:1"/><path d="M21.664 15.34c2.738-3.508-4.277-8.25-.508-12.617-.36 2.957 1.426 4.226 2.235 6.476.773 2.145.738 4.73-1.727 6.14" style="stroke:none;fill-rule:nonzero;fill:#7f8fd0;fill-opacity:1"/><path d="M21.023 15.871C17.95 8.043 3.488 14.902 0 4.574c4.469 3.422 8.246 1.739 12.684 2.582 4.238.805 8.414 3.348 8.34 8.715" style="stroke:none;fill-rule:nonzero;fill:#3b389a;fill-opacity:1"/><path d="M20.629 16.98c-4.465-5.074-13.512 4.06-18.965-2.793 4.309 1.368 6.703-.937 10.285-1.511 3.418-.551 7.266.23 8.68 4.304" style="stroke:none;fill-rule:nonzero;fill:#364ba6;fill-opacity:1"/><path d="M21.05 18.152c-4.894-2.636-9.253 7-15.425 3.282 3.715-.18 4.902-2.645 7.5-4.114 2.48-1.406 5.668-1.906 7.926.832" style="stroke:none;fill-rule:nonzero;fill:#4f6cbd;fill-opacity:1"/><path d="M21.96 18.977c-4.41-.594-4.968 7.855-10.636 6.804 2.73-1.183 2.93-3.363 4.461-5.195 1.465-1.75 3.715-3.023 6.176-1.61" style="stroke:none;fill-rule:nonzero;fill:#7f8fd0;fill-opacity:1"/><g clip-path="url(#a)"><path d="M22.766 19.355c-5.207 6.61 8.011 15.633.851 23.856.703-5.586-2.656-8-4.168-12.258-1.441-4.062-1.355-8.95 3.317-11.598" style="stroke:none;fill-rule:nonzero;fill:#3b389a;fill-opacity:1"/></g><path d="M23.922 19.14c-2.129 6.41 10.32 9.618 7.16 17.786-.996-4.41-4.191-5.317-6.496-8.121-2.2-2.676-3.469-6.39-.664-9.664" style="stroke:none;fill-rule:nonzero;fill:#364ba6;fill-opacity:1"/><path d="M24.723 18.184c.195 5.554 10.715 4.46 10.613 11.66-2.031-3.114-4.754-2.895-7.336-4.395-2.46-1.433-4.504-3.937-3.277-7.265" style="stroke:none;fill-rule:nonzero;fill:#4f6cbd;fill-opacity:1"/><path d="M24.977 16.98c1.71 4.11 9.289.329 11.242 5.754-2.403-1.761-4.383-.832-6.739-1.23-2.25-.383-4.484-1.684-4.503-4.524" style="stroke:none;fill-rule:nonzero;fill:#7f8fd0;fill-opacity:1"/><path d="M176 16.5c-1.48.066-2.703.672-3.73 1.727-.208.218-.305.449-.301.753q.04 4.311.07 8.622c.004.39 0 .777 0 1.257-1.277.028-2.504.008-3.781 0-.024-.289-.055-.535-.055-.78-.004-3.778-.012-7.556.008-11.333 0-.445.066-.902.2-1.324.401-1.281 1.737-2.067 3.183-1.856v1.88c1.37-1.153 2.703-2.016 4.406-1.997zM71.668 28.824h-3.89c-3.86-5.008-7.696-10.144-11.618-15.215q-.084.03-.168.063v15.156h-3.66v-.703c0-5.648-.004-11.297-.004-16.945 0-.309-.004-.625.067-.926.347-1.453 1.378-2.293 2.898-2.379.281-.016.559 0 .902 0 3.86 4.96 7.735 9.938 11.688 15.02.058-.227.113-.34.117-.454.02-3.668.027-7.336.05-11.003.005-.473.071-.954.169-1.418.195-.934.804-1.543 1.668-1.872.547-.203 1.129-.355 1.781-.234zM136.953 8.742v3.348c-.18-.035-.32-.047-.45-.094-2.48-.902-5.054-1.098-7.66-.937-.87.05-1.734.242-2.5.687-1.394.805-1.62 1.906-1.288 3.332.215.918.968 1.418 2.05 1.45 1.41.038 2.825-.02 4.235.027 1.265.043 2.515.183 3.7.71 1.382.614 2.288 1.626 2.698 3.06a7.7 7.7 0 0 1-.074 4.495c-.422 1.352-1.305 2.34-2.531 3.032-.922.52-1.918.82-2.953.976-1.957.293-3.922.246-5.895.05-1.383-.136-2.71-.44-4.015-.792-.165-.672-.18-2.543-.04-3.43.184.051.368.102.543.157 1.707.5 3.438.835 5.223.882 1.215.032 2.418.082 3.61-.199.703-.16 1.324-.46 1.828-1 .765-.82.906-1.805.652-2.836-.242-.988-1.234-1.605-2.5-1.629a150 150 0 0 0-3.98-.004c-1.141.016-2.254-.117-3.317-.523-1.684-.645-2.687-1.871-3.02-3.66a8.8 8.8 0 0 1-.003-3.274c.27-1.476 1.082-2.574 2.304-3.383 1.078-.71 2.29-1.097 3.551-1.269 3.043-.422 6.067-.29 9.043.547.266.074.524.183.79.277M113.813 17.477c-1.172-.66-2.192-.84-3.958-.844-1.949-.008-3.152 1.367-3.363 3.11-.086.734-.07 1.452-.004 2.183.075.77.282 1.48.653 2.164.515.957 1.343 1.457 2.367 1.547.832.07 1.683-.032 2.52-.098.617-.047 1.218-.172 1.784-.492zm.027-3.329V12.59c0-.535-.004-1.07.004-1.606.015-1.734 1.094-2.914 2.828-3.09.3-.03.605-.007.95-.007V27.98c-.724.168-1.474.383-2.235.516-2.008.34-4.032.453-6.063.344-1.86-.094-3.535-.664-4.836-2.074-.843-.918-1.3-2.016-1.558-3.227-.438-2.05-.426-4.09.254-6.082.601-1.758 1.828-2.93 3.617-3.496 2.219-.703 4.426-.68 6.625.082.097.031.207.05.414.105M160.555 22.582c-.325-.066-.594-.133-.864-.176a10 10 0 0 0-1.004-.117c-1.062-.055-2.128-.16-3.18.11-.585.152-1.12.378-1.362 1.003-.415 1.047.074 2.285 1.507 2.426 1.121.106 2.254.094 3.325-.344.562-.23 1.164-.41 1.578-.93zm-.067-3.047c.278-1.648-.375-2.594-2.004-2.887-1.34-.242-2.68-.27-4.023-.035-.969.164-1.941.309-2.953.473v-2.86c.71-.328 1.52-.421 2.308-.57 1.34-.246 2.7-.242 4.047-.156 1.52.098 3.016.352 4.371 1.129.98.562 1.63 1.375 1.938 2.453.09.32.144.664.144.996.012 3.5.012 6.996.012 10.496 0 .055-.02.11-.039.196-1.336.39-2.457-.055-3.387-.887-.984.305-1.875.683-2.8.836-1.766.293-3.543.289-5.243-.39-1.613-.645-2.543-1.825-2.605-3.595-.024-.617-.05-1.254.066-1.855.274-1.379 1.188-2.277 2.446-2.809 1.011-.425 2.09-.675 3.199-.656 1.484.023 2.972.078 4.523.121M78.664 21.09c.078.66.098 1.285.234 1.883.266 1.164.774 2.172 1.942 2.71.66.301 1.351.383 2.058.344 2.075-.109 2.985-1.047 3.477-2.652.406-1.316.406-2.672.125-4.008-.129-.625-.34-1.246-.777-1.762-1.024-1.21-2.36-1.44-3.832-1.23-1.649.238-2.598 1.258-2.97 2.828-.148.625-.179 1.277-.257 1.887m11.863.129c-.07 1.027-.156 2.023-.422 3.02-.683 2.57-2.394 4.03-4.914 4.558a11.9 11.9 0 0 1-5.28-.078c-2.38-.582-3.915-2.024-4.59-4.364-.637-2.19-.626-4.394.054-6.578.809-2.605 2.7-3.925 5.313-4.293a16.5 16.5 0 0 1 2.777-.156 8.7 8.7 0 0 1 3.351.758c1.938.879 2.977 2.445 3.395 4.457.184.875.215 1.785.316 2.676M144.258 10.773v2.657c1.199.093 2.347.004 3.539.062v2.95c-1.012.015-2.035.03-3.106.05-.015.297-.043.516-.043.735-.003 2.117-.011 4.23.008 6.347.004.414.102.84.235 1.235.226.687.754 1.027 1.476 1.043.453.011.903.003 1.39.003.18.5.063 1.008.087 1.504.015.473.004.95.004 1.461-1.473 0-2.891.137-4.27-.035-1.492-.187-2.351-1.203-2.613-2.805-.078-.468-.067-.957-.067-1.437q-.005-5.12.004-10.246c0-.363-.007-.738.067-1.094.238-1.148.933-1.906 2.062-2.234.371-.106.766-.125 1.227-.196M96.727 13.527v1.864c.27-.184.449-.286.605-.422.8-.7 1.719-1.164 2.754-1.403.293-.066.602-.066.95-.105v2.996c-1.52.18-2.829.813-3.884 2.11v10.261H93.34v-.703c0-3.754-.004-7.508.004-11.262 0-.363.047-.73.125-1.086.347-1.554 1.527-2.394 3.258-2.25" style="stroke:none;fill-rule:evenodd;fill:#3b389a;fill-opacity:1"/></svg>
